assets/icons/music/artist.svg

<?xml version="1.0" encoding="UTF-8" standalone="no"?>
<svg
   viewBox="0 0 24 24"
   height="24"
   id="svg7384"
   version="1.1"
   width="24"
   sodipodi:docname="artist.svg"
   inkscape:version="1.2.2 (1:1.2.2+202212051551+b0a8486541)"
   xmlns:inkscape="http://www.inkscape.org/namespaces/inkscape"
   xmlns:sodipodi="http://sodipodi.sourceforge.net/DTD/sodipodi-0.dtd"
   xmlns="http://www.w3.org/2000/svg"
   xmlns:svg="http://www.w3.org/2000/svg"
   xmlns:rdf="http://www.w3.org/1999/02/22-rdf-syntax-ns#"
   xmlns:cc="http://creativecommons.org/ns#"
   xmlns:dc="http://purl.org/dc/elements/1.1/">
  <sodipodi:namedview
     id="namedview21"
     pagecolor="#ffffff"
     bordercolor="#666666"
     borderopacity="1.0"
     inkscape:pageshadow="2"
     inkscape:pageopacity="0.0"
     inkscape:pagecheckerboard="0"
     showgrid="true"
     inkscape:snap-page="true"
     inkscape:zoom="75.326505"
     inkscape:cx="18.678684"
     inkscape:cy="10.879305"
     inkscape:window-width="1850"
     inkscape:window-height="1016"
     inkscape:window-x="0"
     inkscape:window-y="0"
     inkscape:window-maximized="1"
     inkscape:current-layer="svg7384"
     inkscape:showpageshadow="2"
     inkscape:deskcolor="#d1d1d1">
    <inkscape:grid
       type="xygrid"
       id="grid1044"
       dotted="false" />
    <inkscape:grid
       type="xygrid"
       id="grid892"
       dotted="true"
       spacingx="0.5"
       spacingy="0.5"
       empspacing="10" />
  </sodipodi:namedview>
  <metadata
     id="metadata20854">
    <rdf:RDF>
      <cc:Work
         rdf:about="">
        <dc:format>image/svg+xml</dc:format>
        <dc:type
           rdf:resource="http://purl.org/dc/dcmitype/StillImage" />
      </cc:Work>
    </rdf:RDF>
  </metadata>
  <defs
     id="defs7386">
    <linearGradient
       id="linearGradient5606"
       inkscape:swatch="solid">
      <stop
         id="stop5608"
         offset="0"
         style="stop-color:#000000;stop-opacity:1;" />
    </linearGradient>
    <linearGradient
       id="linearGradient4526"
       inkscape:swatch="solid">
      <stop
         id="stop4528"
         offset="0"
         style="stop-color:#ffffff;stop-opacity:1;" />
    </linearGradient>
    <linearGradient
       id="linearGradient3600-4"
       inkscape:swatch="gradient">
      <stop
         id="stop3602-7"
         offset="0"
         style="stop-color:#f4f4f4;stop-opacity:1" />
      <stop
         id="stop3604-6"
         offset="1"
         style="stop-color:#dbdbdb;stop-opacity:1" />
    </linearGradient>
  </defs>
  <g
     id="layer2"
     style="display:inline;stroke-width:0.80002"
     transform="matrix(1.25,0,0,1.2499376,-937.99998,-522.97378)" />
  <g
     id="layer4"
     style="display:inline;stroke-width:0.80002"
     transform="matrix(1.25,0,0,1.2499376,-937.99998,-522.97378)" />
  <g
     id="g1812"
     style="display:inline;stroke-width:0.80002"
     transform="matrix(1.25,0,0,1.2499376,-937.99998,-522.97378)" />
  <g
     id="g6217"
     style="display:inline;stroke-width:0.80002"
     transform="matrix(1.25,0,0,1.2499376,-937.99998,-522.97378)" />
  <g
     id="layer3"
     style="display:inline;stroke-width:0.80002"
     transform="matrix(1.25,0,0,1.2499376,-937.99998,-522.97378)" />
  <g
     id="g1833"
     style="display:inline;stroke-width:0.80002"
     transform="matrix(1.25,0,0,1.2499376,-937.99998,-522.97378)" />
  <g
     id="layer1"
     style="display:inline;stroke-width:0.80002"
     transform="matrix(1.25,0,0,1.2499376,-937.99998,-522.97378)" />
  <path
     id="path56"
     style="color:#000000;fill:#808080;-inkscape-stroke:none"
     d="M 12 2 A 5 5.5 0 0 0 7 7.5 A 5 5.5 0 0 0 12 13 A 5 5.5 0 0 0 17 7.5 A 5 5.5 0 0 0 12 2 z M 12 3 A 4 4.5 0 0 1 16 7.5 A 4 4.5 0 0 1 12 12 A 4 4.5 0 0 1 8 7.5 A 4 4.5 0 0 1 12 3 z M 12 15 C 7.6094499 15.002 5.3171811 16.023094 4.140625 17.357422 C 2.9640689 18.69175 3 20.264084 3 21 L 4 21 C 4 20.235923 3.9738707 19.059218 4.890625 18.019531 C 5.8073791 16.979845 7.7638587 16.001919 12 16 C 12.884656 15.999604 13.663035 16.045937 14.359375 16.123047 A 4 4 0 0 1 16.5 15.5 A 4 4 0 0 1 16.535156 15.5 C 15.351851 15.184643 13.868039 14.999155 12 15 z " />
  <path
     id="path865"
     style="color:#000000;fill:#808080;stroke-linejoin:round;-inkscape-stroke:none"
     d="m 18,12 v 5.501953 c -0.418396,-0.315261 -0.938971,-0.501953 -1.5,-0.501953 c -1.374787,0 -2.5,1.125213 -2.5,2.5 c 0,1.374787 1.125213,2.5 2.5,2.5 c 1.374787,0 2.5,-1.125213 2.5,-2.5 v -5.5 h 2.5 v -2 z m -1.5,6 c 0.834348,0 1.5,0.665652 1.5,1.5 c 0,0.834348 -0.665652,1.5 -1.5,1.5 c -0.834348,0 -1.5,-0.665652 -1.5,-1.5 c 0,-0.834348 0.665652,-1.5 1.5,-1.5 z"
     sodipodi:nodetypes="ccssssccccsssss" />
</svg>

<svg height="24" width="24" xmlns="http://www.w3.org/2000/svg"><path style="color:#000;fill:gray;-inkscape-stroke:none" d="M12 2a5 5.5 0 0 0-5 5.5 5 5.5 0 0 0 5 5.5 5 5.5 0 0 0 5-5.5A5 5.5 0 0 0 12 2zm0 1a4 4.5 0 0 1 4 4.5 4 4.5 0 0 1-4 4.5 4 4.5 0 0 1-4-4.5A4 4.5 0 0 1 12 3zm0 12c-4.39.002-6.683 1.023-7.86 2.357C2.965 18.692 3 20.264 3 21h1c0-.764-.026-1.94.89-2.98.917-1.04 2.874-2.018 7.11-2.02.885 0 1.663.046 2.36.123a4 4 0 0 1 2.14-.623 4 4 0 0 1 .035 0c-1.183-.315-2.667-.5-4.535-.5z"/><path style="color:#000;fill:gray;stroke-linejoin:round;-inkscape-stroke:none" d="M18 12v5.502A2.487 2.487 0 0 0 16.5 17a2.508 2.508 0 0 0-2.5 2.5c0 1.375 1.125 2.5 2.5 2.5s2.5-1.125 2.5-2.5V14h2.5v-2zm-1.5 6c.834 0 1.5.666 1.5 1.5s-.666 1.5-1.5 1.5-1.5-.666-1.5-1.5.666-1.5 1.5-1.5z"/></svg>
